X: 2447
T: Ballintore Fancy, The
R: reel
M: 4/4
K: Gmajor
|:GB ~B2 GBdB|GBBG FGAF|GB ~B2 GBdg|1 ecAG FGAF:|2 ecAG FGAG||
|:BE~E2 BEGA|BE ~E2 A2GA|BE ~E2 cABG|1 AGFG A2GA:|2 AGFG AcBA||

